X:123
T:The Concertina Reel
M:C|
L:1/8
K:D
"D"A2 FA BAFA|A2 FA BAFA|"A"B2 cA B2 cA|B2 cA BAFG|
"D"A2 FA BAFA|A2 FA BAFE|FABc "G"dedB|"A"AFEG "D"FDFG:|
|:"D"Addd Addd|Addd BAFA|"A"B2 cA B2 cA|B2 cA BAFG|"D"Addd Addd|
Addd BAFA|"G"GABc dedB|1 "A"AFEG "D"FDFG:|2 "A"AFEG "D"FD D2|]
